!!!!SEGMENT: pl-wn--sd-xvi-qu-273--009_gomolka-mikolaj--ciebie-bede-boze-prawy.krn
!!!cenid: 15xx:214
!!!COM: Gomółka, Mikołaj
!!!COM-rismid: pe30013343
!!!CDT: ~1535->1591/04/30
!!!CNT: Polish
!!!GTL: Melodiae na psalterz polski
!!!OTL: IX. Ciebie będę, Boże prawy,
!!!PDT: 1580
!!!AGN: Sacred
!!!SMS-siglum: PL-Wn
!!!SMS-shelfmark: SD XVI.Qu.273
!!!SMS-shelfwork: 009 G
!!!NIFC-rismid:
!!!ONB-nifc: Melodiae na psalterz polski
**kern	**text	**kern	**text	**kern	**text	**kern	**text
*part4	*part4	*part3	*part3	*part2	*part2	*part1	*part1
*staff4	*staff4	*staff3	*staff3	*staff2	*staff2	*staff1	*staff1
*clefF3	*	*clefC3	*	*clefC3	*	*clefC1	*
*k[b-]	*	*k[b-]	*	*k[b-]	*	*k[b-]	*
*F:	*	*F:	*	*F:	*	*F:	*
*M4/2	*	*M4/2	*	*M4/2	*	*M4/2	*
*met(C|)	*	*met(C|)	*	*met(C|)	*	*met(C|)	*
*xywh-11r:3093,5283,2604,1371	*	*xywh-11r:2997,4028,2647,1307	*	*xywh-11r:2857,2635,2818,1414	*	*xywh-11r:3040,1124,2636,1682	*
=1-	=1-	=1-	=1-	=1-	=1-	=1-	=1-
1F\	Cie-	1c\	Cie-	1f\	Cie-	1.a\	Cie-
1D/	-bie	2.d\	-bie	2.f\	-bie	.	.
.	.	.	.	.	.	4b-\	-bie
.	.	4c/	.	4e\	.	4a\	.
=2-	=2-	=2-	=2-	=2-	=2-	=2-	=2-
1G\	bę-	1B-/	bę-	1d\	bę-	4g\	.
.	.	.	.	.	.	4f/	.
.	.	.	.	.	.	2g/	bę-
2C/	-dę,	2c/	-dę,	2e\	-dę,	2g/	-dę,
1c\	Bo-	1e\	Bo-	1g\	Bo-	1cc\	Bo-
=3-	=3-	=3-	=3-	=3-	=3-	=3-	=3-
.	.	.	.	.	.	.	.
2A\	-że,	1f\	-że,	4a\	-że,	2cc\	-że,
.	.	.	.	4g\	.	.	.
1d\	prá-	.	.	4f\	.	2a\	prá-
.	.	.	.	4e\	.	.	.
.	.	4e\	prá-	2f\	prá-	2b-\	.
.	.	4d\	.	.	.	.	.
=4-	=4-	=4-	=4-	=4-	=4-	=4-	=4-
2c\	-wy,	2e\	-wy,	2g\	-wy,	2cc\	-wy,
2F/	Ca-	2f\	Ca-	2a\	Ca-	2cc\	Ca-
!!LO:PB:g=original
*xywh-11v:1277,5323,5042,1442	*	*xywh-11v:1223,4044,5129,1366	*	*xywh-11v:1266,2807,5086,1366	*	*xywh-11v:1256,1170,5021,1800	*
2.B-\	-łym	2f\	-łym	2b-\	-łym	2.dd\	.
.	.	2.d\	ser-	4B-/	ser-	.	.
4A\	.	.	.	4c/	.	4cc\	-łym
=5-	=5-	=5-	=5-	=5-	=5-	=5-	=5-
1G\	ser-	.	.	4d\	.	2b-\	ser-
.	.	4c\	.	4c/	.	.	.
.	.	2B-/	.	4d\	.	4a\	.
.	.	.	.	4e\	.	4g/	.
2F/	-cem	2c/	-cem	2f\	-cem	4a\	-cem
.	.	.	.	.	.	4b-\	.
2E/	wyz-	2e\	wyz-	2g\	wyz-	1cc\	wyz-
=6-	=6-	=6-	=6-	=6-	=6-	=6-	=6-
2F/	-na-	1d\	-na-	2a\	-na-	.	.
2G\	.	.	.	4g\	.	2b-\	-na-
.	.	.	.	4f\	.	.	.
2C/	-wał,	2c/	-wał,	2e\	-wał,	2cc\	-wał,
2c\	Two-	2e\	Two-	2g\	Two-	2cc\	Two-
=7-	=7-	=7-	=7-	=7-	=7-	=7-	=7-
1F\	-ie	2.f\	.	2.a\	.	1cc\	-ie
.	.	4e\	-ie	4g\	-ie	.	.
1B-\	wszyst-	1d\	wszyst-	2f\	wszyst-	2.f/	wszyst-
.	.	.	.	2d\	-ki	.	.
.	.	.	.	.	.	4g/	-ki
=8-	=8-	=8-	=8-	=8-	=8-	=8-	=8-
2A\	-ki	2c/	-ki	2e\	dźi(w-	2a\	dźi(w-
2D/	dźi(w-	2d\	dźi(w-	2f\	-ne)	1a\	-ne)
2G\	-ne)	2B-/	-ne)	4d\	sprá-	.	.
.	.	.	.	4c/	.	.	.
2G\	sp(r)á-	2B-/	sprá-	4d\	.	2g/	sprá-
.	.	.	.	4e\	.	.	.
=9-	=9-	=9-	=9-	=9-	=9-	=9-	=9-
2F/	-wy	2A/	-wy	2f\	-wy	2a\	-wy
2C/	Bę-	2c/	Bę-	2e\	Bę-	2g/	Bę-
2F\	-dę	2A/	-dę	4f\	-dę	2a\	-dę
.	.	.	.	4e\	.	.	.
2BB-/	świá-	4B-/	świá-	2d\	świá-	4g/	świá-
.	.	4A/	.	.	.	4f/	.
=10-	=10-	=10-	=10-	=10-	=10-	=10-	=10-
2C/	-tu	2G/	-tu	2c/	-tu	2e/	-tu
2D/	po-	2F/	po-	2B-/	po-	1f/	po-
1C/	-da-	1G/	-da-	2.c/	-da-	.	.
.	.	.	.	.	.	2e/	-da-
.	.	.	.	4B-/	.	.	.
=11-	=11-	=11-	=11-	=11-	=11-	=11-	=11-
0F\	-wał.	0F/	-wał.	0A/	-wał.	0f/	-wał.
==	==	==	==	==	==	==	==
*-	*-	*-	*-	*-	*-	*-	*-
!!!RDF**kern: l = terminal long
!!!system-decoration: s1,s2,s3,s4
!!!ENC: Leszek Kubiak
!!!END: 2020-02-01
!!!URL-scan: https://polona.pl/item/melodiae-na-psalterz-polski,Nzk3MTM4ODQ/36 Scan on Polona
!!!IIIF: https://polona.pl/iiif/item/Nzk3MTM4ODQ/manifest.json
